X:1
T:The Upward Way
T:The Upward Way
T:Luther Burgess Bridgers
T:Luther Burgess Bridgers, 1910
T:Public Domain Courtesy of the Cyber Hymnal™
T:Public Domain Courtesy of the Cyber Hymnal™
C:Luther Burgess Bridgers
Z:Public Domain
Z:Courtesy of the Cyber Hymnal™
%%score ( 1 2 ) ( 3 4 )
L:1/8
Q:1/4=92
M:4/4
K:F
V:1 treble 
V:2 treble 
V:3 bass 
V:4 bass 
V:1
 [CF][CG] | [FA]>[F^G] [FA][Fc] [FA]2 [EG][_EA] | [DB]>[DB] [DB][_DF] [CA]2 [FA][GB] | %3
w: 1.~List- en,|bro- ther, while we sing As the|bells of Heav- en ring, Let us|
w: 2.~If there’s|some- thing else you need, He your|hun- gry soul will feed, He will|
w: 3.~You may|think He will not come, But He|will if there is room, So then,|
w: 4.~Say! I|real- ly did not know He could|cleanse and fill me so; But by|
 [Ac]>[Ac] [^Gd][Gd] [Ac][Ac][Ac][FA] | [EG]4 z2 [CF][CG] | [FA]>[F^G] [FA][Fc] [FA]2 [EG][_EA] | %6
w: tell to you the sto- ry of the|cross; Je- sus|died to set you free, That is|
w: sanc- ti- fy and make the tem- ple|clean; He will|come in to a- bide, Then you’ll|
w: bro- ther, o- pen wide to Him the|door; He will|search you thro’ and thro’, Cleanse and|
w: faith I launched far out a- way from|shore; ’Tis so|sweet to know and be Dead to|
 [DB]>[DB] [DB][_DF] [CA]2 F[FG] | [FA][Fc][Fc][Fd] [FA]2 [EG]2 | [CF]6 z2 || %9
w: what He did for me, As I|press a- long the up- ward|way.|
w: sing what- e’er be- tide, As you|press a- long the up- ward|way.|
w: make the heart a- new, As you|press a- long the up- ward|way.|
w: self, from sin set free, As you|press a- long the up- ward|way.|
"^Refrain" [Fd]2 [Fd]2 [Fd] [Fd]2 [Fd] | [Fd][Fc][Fc][FA] [Fc]4 | %11
w: ||
w: Glo- ry to God I’m|on my jour- ney home,|
w: ||
w: ||
 [Ff][Fc][Fc][Fc] [Fd][Fc][FA][Fc] | [EG]2 c2 !fermata![Gc]2 [CA][CB] | %13
w: ||
w: Sing- ing and I’m shout- ing as I|march a- long, I am|
w: ||
w: ||
 [Cc][Fc][Fc][FA] [Fc]2 [Fc][F_e] | [F_e][Fd][Fd][DB] [Fd]2 !fermata![Ff][Fd] | %15
w: ||
w: go- ing by and by, to the|pal- ace of the King, I am|
w: ||
w: ||
 [Fc][Fc][Fc][Fd] [FA]2 [EG]2 | [CF]4 z2 |] %17
w: ||
w: press- ing on the up- ward|way.|
w: ||
w: ||
V:2
 x2 | x8 | x8 | x8 | x8 | x8 | x6 F x | x8 | x8 || x8 | x8 | x8 | x2 (EF) x4 | x8 | x8 | x8 | x6 |] %17
V:3
 [F,A,][F,B,] | [F,C]>[F,=B,] [F,C][F,A,] [F,C]2 [C,C][F,C] | %2
 [B,,B,]>[B,,F,] [B,,F,][B,,F,] [F,,F,]2 [F,C][F,C] | %3
 [F,C]>[F,C] [F,=B,][F,B,] [F,C][F,C][F,C][F,C] | [C,C]4 z2 [F,A,][F,B,] | %5
 [F,C]>[F,=B,] [F,C][F,A,] [F,C]2 [C,C][F,C] | %6
 [B,,B,]>[B,,F,] [B,,F,][B,,F,] [F,,F,]2 [F,A,][F,B,] | [F,C][F,A,][F,A,][F,A,] [C,C]2 [C,B,]2 | %8
 [F,A,]6 z2 || [B,,B,]2 [B,,B,]2 [B,,B,] [B,,B,]2 [B,,B,] | [F,B,][F,A,][F,A,][F,C] [F,A,]4 | %11
 [F,A,][F,A,][F,A,][F,A,] [F,B,][F,A,][F,C][F,A,] | [C,C]2 (G,A,) !fermata![C,B,]2 F,[F,G,] | %13
 [F,A,][F,A,][F,A,][F,C] [F,A,]2 [F,A,][F,A,] | %14
 [F,A,][B,,B,][B,,B,][B,,B,] [B,,B,]2 [B,,D][B,,B,] | [C,A,][C,A,][C,A,][C,A,] [C,C]2 [C,B,]2 | %16
 [F,A,]4 z2 |] %17
V:4
 x2 | x8 | x8 | x8 | x8 | x8 | x8 | x8 | x8 || x8 | x8 | x8 | x2 C,2 x F, x2 | x8 | x8 | x8 | x6 |] %17

